images/instagram-icon.svg

<svg xmlns="http://www.w3.org/2000/svg" width="200" height="200" viewBox="0 0 200 200"><style type="text/css">.st0{fill:#C1272D;}</style><path class="st0" d="M99.8 0c-55.2 0-100 44.8-100 100s44.8 100 100 100 100-44.8 100-100c-.1-55.2-44.8-100-100-100zm67.2 139.6c0 13.5-10.9 24.4-24.4 24.4h-85.2c-13.5 0-24.4-10.9-24.4-24.4v-80.2c0-13.5 10.9-24.4 24.4-24.4h85.1c13.5 0 24.4 10.9 24.4 24.4v80.2zm-17-71.5h-14.9c-2.3 0-4.3-1.9-4.3-4.3v-14c0-2.3 1.9-4.3 4.3-4.3h14.9c2.3 0 4.3 1.9 4.3 4.3v14c-.1 2.4-2 4.3-4.3 4.3zm-117 10.6h50.4v6.5h-50.4zm99.2 0h34.8v6.5h-34.8zm-24.2 56.2c-19.6 0-35.6-16-35.6-35.6s16-35.6 35.6-35.6 35.6 16 35.6 35.6-16 35.6-35.6 35.6zm0-62.3c-14.7 0-26.6 11.9-26.6 26.6s11.9 26.6 26.6 26.6c14.7 0 26.6-11.9 26.6-26.6s-11.9-26.6-26.6-26.6z"/></svg>

<?xml version="1.0" encoding="utf-8"?>
<!-- Generator: Adobe Illustrator 19.1.0, SVG Export Plug-In . SVG Version: 6.00 Build 0)  -->
<svg version="1.1" id="Layer_1" xmlns="http://www.w3.org/2000/svg" xmlns:xlink="http://www.w3.org/1999/xlink" x="0px" y="0px"
	 width="200px" height="200px" viewBox="0 0 200 200" style="enable-background:new 0 0 200 200;" xml:space="preserve">
<style type="text/css">
	.st0{fill:#C1272D;}
</style>
<path class="st0" d="M99.8,0C44.6,0-0.2,44.8-0.2,100c0,55.2,44.8,100,100,100c55.2,0,100-44.8,100-100C199.7,44.8,155,0,99.8,0z
	 M167,139.6c0,13.5-10.9,24.4-24.4,24.4H57.4C43.9,164,33,153.1,33,139.6V59.4C33,45.9,43.9,35,57.4,35h85.1
	c13.5,0,24.4,10.9,24.4,24.4V139.6z"/>
<path class="st0" d="M150,68.1h-14.9c-2.3,0-4.3-1.9-4.3-4.3v-14c0-2.3,1.9-4.3,4.3-4.3H150c2.3,0,4.3,1.9,4.3,4.3v14
	C154.2,66.2,152.3,68.1,150,68.1z"/>
<rect x="33" y="78.7" class="st0" width="50.4" height="6.5"/>
<rect x="132.2" y="78.7" class="st0" width="34.8" height="6.5"/>
<g>
	<path class="st0" d="M108,134.9c-19.6,0-35.6-16-35.6-35.6s16-35.6,35.6-35.6c19.6,0,35.6,16,35.6,35.6S127.6,134.9,108,134.9z
		 M108,72.6c-14.7,0-26.6,11.9-26.6,26.6s11.9,26.6,26.6,26.6c14.7,0,26.6-11.9,26.6-26.6S122.7,72.6,108,72.6z"/>
</g>
<g>
</g>
<g>
</g>
<g>
</g>
<g>
</g>
<g>
</g>
<g>
</g>
<g>
</g>
<g>
</g>
<g>
</g>
<g>
</g>
<g>
</g>
<g>
</g>
<g>
</g>
<g>
</g>
<g>
</g>
</svg>
